X: 459
U:~=!turn!
M:C|
L:1/8
K:E Aeolian
f | {/f}gef^d {/f}e2 (Be) | {/^c}dBAd FDDf | {/f}gef^d {/f}e2 (Be) | {/^c}d>B AF E/E/E (Ef) |
{/f}gef^d {/f}e2 (Be) | {^c}dBAd {/G}FDDF | (E>F)GA TB2 (Bf) | {/f}gef^d e/e/e e |]


